Newaita-dark/apps/24/com.github.allen-b1.news.svg

<svg height="24pt" viewBox="0 0 24 24" width="24pt" xmlns="http://www.w3.org/2000/svg" xmlns:xlink="http://www.w3.org/1999/xlink"><linearGradient id="a" gradientUnits="userSpaceOnUse" x1="11.907391" x2="11.907391" y1="21.02545125" y2="22.01773415627"><stop offset="0" stop-opacity=".27451"/><stop offset="1" stop-opacity="0"/></linearGradient><linearGradient id="b"><stop offset="0" stop-opacity=".313725"/><stop offset=".222222" stop-opacity=".27451"/><stop offset="1" stop-opacity="0"/></linearGradient><radialGradient id="c" cx="450.90894" cy="189.57936" gradientTransform="matrix(.00000013 -.0585994 -.105479 -.00000008 39.842198 47.696501)" gradientUnits="userSpaceOnUse" r="21.166656" xlink:href="#b"/><radialGradient id="d" cx="450.90894" cy="189.57936" gradientTransform="matrix(-.00000013 .0585994 .105479 .00000008 -15.903388 -5.645609)" gradientUnits="userSpaceOnUse" r="21.166656" xlink:href="#b"/><radialGradient id="e" cx="450.90894" cy="189.57936" gradientTransform="matrix(-.00000013 -.0585994 .105479 -.00000008 -15.903388 47.696501)" gradientUnits="userSpaceOnUse" r="21.166656" xlink:href="#b"/><radialGradient id="f" cx="450.90894" cy="189.57936" gradientTransform="matrix(.00000013 .0585994 -.105479 .00000008 39.842196 -5.645609)" gradientUnits="userSpaceOnUse" r="21.166656" xlink:href="#b"/><linearGradient id="g" gradientUnits="userSpaceOnUse" x1="11.907393" x2="11.907393" y1="21.02545025" y2="2.17207784373"><stop offset="0" stop-color="#f44336"/><stop offset="1" stop-color="#ef5350"/></linearGradient><linearGradient id="h" gradientUnits="userSpaceOnUse" x1="12.89964" x2="12.89964" y1="21.0253985937" y2="2.17207772546"><stop offset="0" stop-color="#bdbdbd"/><stop offset="1" stop-color="#e0e0e0"/></linearGradient><path d="m3.84375 21.027344h16.25v.992187h-16.25zm0 0" fill="url(#a)"/><path d="m20.09375 21.027344h1.984375v-.996094h-1.984375zm0 0" fill="url(#c)"/><path d="m3.84375 21.027344h-1.984375v.992187h1.984375zm0 0" fill="url(#d)"/><path d="m3.84375 21.027344h-1.984375v-.996094h1.984375zm0 0" fill="url(#e)"/><path d="m20.09375 21.027344h1.984375v.992187h-1.984375zm0 0" fill="url(#f)"/><path d="m2.730469 2.171875h18.355469c.410156 0 .746093.332031.746093.746094v17.363281c0 .410156-.335937.746094-.746093.746094h-18.355469c-.414063 0-.746094-.335938-.746094-.746094v-17.363281c0-.414063.332031-.746094.746094-.746094zm0 0" fill="url(#g)"/><path d="m2.730469 2.171875c-.414063 0-.746094.332031-.746094.746094v.121093c0-.410156.332031-.742187.746094-.742187h18.355469c.414062 0 .746093.332031.746093.742187v-.121093c0-.414063-.332031-.746094-.746093-.746094zm0 0" fill="#fff" fill-opacity=".392157"/><path d="m2.730469 21.023438c-.414063 0-.746094-.332032-.746094-.742188v-.125c0 .414062.332031.746094.746094.746094h18.355469c.414062 0 .746093-.332032.746093-.746094v.125c0 .410156-.332031.742188-.746093.742188zm0 0" fill="#030303" fill-opacity=".235294"/><path d="m2.730469 2.101562c-.453125 0-.816407.363282-.816407.816407v17.363281c0 .449219.363282.816406.816407.816406h18.355469c.449218 0 .816406-.367187.816406-.816406v-17.363281c0-.453125-.367188-.816407-.816406-.816407zm0 .140626h18.355469c.375 0 .675781.300781.675781.675781v17.363281c0 .375-.300781.675781-.675781.675781h-18.355469c-.375 0-.675781-.300781-.675781-.675781v-17.363281c0-.375.300781-.675781.675781-.675781zm0 0" fill="#212121"/><path d="m3.96875 5.148438c-.273438 0-.496094.222656-.496094.496093v.992188c0 .277343.222656.496093.496094.496093 6.597656 0 11.90625 5.3125 11.90625 11.90625 0 .277344.222656.496094.496094.496094h.992187c.277344 0 .496094-.21875.496094-.496094 0-7.695312-6.195313-13.890624-13.890625-13.890624zm0 3.96875c-.273438 0-.496094.222656-.496094.496093v.992188c0 .277343.222656.496093.496094.496093 4.398438 0 7.9375 3.542969 7.9375 7.9375 0 .277344.222656.496094.496094.496094h.992187c.277344 0 .496094-.21875.496094-.496094 0-5.496093-4.425781-9.921874-9.921875-9.921874zm2.234375 4.960937c-1.511719 0-2.730469 1.21875-2.730469 2.730469 0 1.511718 1.21875 2.726562 2.730469 2.726562s2.726563-1.214844 2.726563-2.726562c0-1.511719-1.214844-2.730469-2.726563-2.730469zm0 0" fill="url(#h)"/><path d="m3.96875 5.148438c-.273438 0-.496094.222656-.496094.496093v.371094c0-.273437.222656-.496094.496094-.496094 7.59375 0 13.722656 6.03125 13.890625 13.582031 0-.019531 0-.039062 0-.0625 0-7.695312-6.195313-13.890624-13.890625-13.890624zm0 3.96875c-.273438 0-.496094.222656-.496094.496093v.371094c0-.273437.222656-.496094.496094-.496094 5.394531 0 9.757812 4.265625 9.917969 9.621094.003906-.023437.003906-.046875.003906-.070313 0-5.496093-4.425781-9.921874-9.921875-9.921874zm2.234375 4.960937c-1.511719 0-2.730469 1.21875-2.730469 2.730469 0 .0625.003906.125.007813.1875.09375-1.425782 1.273437-2.542969 2.722656-2.542969s2.625 1.117187 2.722656 2.542969c.003907-.0625.003907-.125.003907-.1875 0-1.511719-1.214844-2.730469-2.726563-2.730469zm0 0" fill="#fff"/><path d="m3.472656 6.636719v.496093c0 .277344.222656.496094.496094.496094 6.597656 0 11.90625 5.3125 11.90625 11.90625 0 .277344.222656.496094.496094.496094h.992187c.277344 0 .496094-.21875.496094-.496094 0-.136718 0-.277344-.003906-.414062-.039063.234375-.242188.414062-.492188.414062h-.992187c-.273438 0-.496094-.21875-.496094-.496094 0-6.59375-5.308594-11.90625-11.90625-11.90625-.273438 0-.496094-.21875-.496094-.496093zm0 3.96875v.496093c0 .277344.222656.496094.496094.496094 4.398438 0 7.9375 3.542969 7.9375 7.9375 0 .277344.222656.496094.496094.496094h.992187c.277344 0 .496094-.21875.496094-.496094 0-.132812 0-.269531-.007813-.40625-.042968.234375-.242187.40625-.488281.40625h-.992187c-.273438 0-.496094-.21875-.496094-.496094 0-4.394531-3.539062-7.9375-7.9375-7.9375-.273438 0-.496094-.21875-.496094-.496093zm.011719 6.449219c-.007813.082031-.011719.167968-.011719.25 0 1.511718 1.21875 2.726562 2.730469 2.726562s2.726563-1.214844 2.726563-2.726562c0-.082032-.003907-.167969-.011719-.25-.125 1.394531-1.289063 2.480468-2.714844 2.480468-1.429687 0-2.59375-1.085937-2.71875-2.480468zm0 0" fill-opacity=".235294"/><path d="m319.969448 415.078477c-22.045139 0-39.996181 17.951042-39.996181 39.996182v79.992362c0 22.360069 17.951042 39.996181 39.996181 39.996181 531.917716 0 959.908346 428.305561 959.908346 959.908345 0 22.36007 17.951042 39.996181 39.996181 39.996181h79.992362c22.36007 0 39.996181-17.636111 39.996181-39.996181 0-620.413202-499.479867-1119.89307-1119.89307-1119.89307zm0 319.969449c-22.045139 0-39.996181 17.951042-39.996181 39.996181v79.992362c0 22.36007 17.951042 39.996181 39.996181 39.996181 354.61181 0 639.938897 285.642018 639.938897 639.938897 0 22.36007 17.951042 39.996181 39.996181 39.996181h79.992363c22.360069 0 39.996181-17.636111 39.996181-39.996181 0-443.107297-356.816324-799.923621-799.923622-799.923621zm180.140281 399.961811c-121.878127 0-220.136462 98.258334-220.136462 220.136461 0 121.878126 98.258335 219.82153 220.136462 219.82153 121.878126 0 219.82153-97.943404 219.82153-219.82153 0-121.878127-97.943404-220.136461-219.82153-220.136461zm0 0" fill="none" stroke="#212121" stroke-linecap="round" stroke-linejoin="round" stroke-width="11.338583" transform="scale(.0124035)"/></svg>

<?xml version="1.0" encoding="UTF-8"?>
<svg xmlns="http://www.w3.org/2000/svg" xmlns:xlink="http://www.w3.org/1999/xlink" width="24pt" height="24pt" viewBox="0 0 24 24" version="1.1">
<defs>
<linearGradient id="linear0" gradientUnits="userSpaceOnUse" x1="254" y1="233.5" x2="254" y2="254.66667" gradientTransform="matrix(0.0468795,0,0,0.0468795,-0.00000187518,10.079088)">
<stop offset="0" style="stop-color:rgb(0%,0%,0%);stop-opacity:0.27451;"/>
<stop offset="1" style="stop-color:rgb(0%,0%,0%);stop-opacity:0;"/>
</linearGradient>
<radialGradient id="radial0" gradientUnits="userSpaceOnUse" cx="450.90894" cy="189.57936" fx="450.90894" fy="189.57936" r="21.166656" gradientTransform="matrix(0.000000130628,-0.0585994,-0.105479,-0.0000000761539,39.842198,47.696501)">
<stop offset="0" style="stop-color:rgb(0%,0%,0%);stop-opacity:0.313725;"/>
<stop offset="0.222222" style="stop-color:rgb(0%,0%,0%);stop-opacity:0.27451;"/>
<stop offset="1" style="stop-color:rgb(0%,0%,0%);stop-opacity:0;"/>
</radialGradient>
<radialGradient id="radial1" gradientUnits="userSpaceOnUse" cx="450.90894" cy="189.57936" fx="450.90894" fy="189.57936" r="21.166656" gradientTransform="matrix(-0.000000130628,0.0585994,0.105479,0.0000000761539,-15.903388,-5.645609)">
<stop offset="0" style="stop-color:rgb(0%,0%,0%);stop-opacity:0.313725;"/>
<stop offset="0.222222" style="stop-color:rgb(0%,0%,0%);stop-opacity:0.27451;"/>
<stop offset="1" style="stop-color:rgb(0%,0%,0%);stop-opacity:0;"/>
</radialGradient>
<radialGradient id="radial2" gradientUnits="userSpaceOnUse" cx="450.90894" cy="189.57936" fx="450.90894" fy="189.57936" r="21.166656" gradientTransform="matrix(-0.000000130628,-0.0585994,0.105479,-0.0000000761539,-15.903388,47.696501)">
<stop offset="0" style="stop-color:rgb(0%,0%,0%);stop-opacity:0.313725;"/>
<stop offset="0.222222" style="stop-color:rgb(0%,0%,0%);stop-opacity:0.27451;"/>
<stop offset="1" style="stop-color:rgb(0%,0%,0%);stop-opacity:0;"/>
</radialGradient>
<radialGradient id="radial3" gradientUnits="userSpaceOnUse" cx="450.90894" cy="189.57936" fx="450.90894" fy="189.57936" r="21.166656" gradientTransform="matrix(0.000000130628,0.0585994,-0.105479,0.0000000761539,39.842196,-5.645609)">
<stop offset="0" style="stop-color:rgb(0%,0%,0%);stop-opacity:0.313725;"/>
<stop offset="0.222222" style="stop-color:rgb(0%,0%,0%);stop-opacity:0.27451;"/>
<stop offset="1" style="stop-color:rgb(0%,0%,0%);stop-opacity:0;"/>
</radialGradient>
<linearGradient id="linear1" gradientUnits="userSpaceOnUse" x1="254" y1="233.5" x2="254" y2="-168.66667" gradientTransform="matrix(0.0468795,0,0,0.0468795,0,10.079087)">
<stop offset="0" style="stop-color:rgb(95.686275%,26.27451%,21.176471%);stop-opacity:1;"/>
<stop offset="1" style="stop-color:rgb(93.72549%,32.54902%,31.372549%);stop-opacity:1;"/>
</linearGradient>
<linearGradient id="linear2" gradientUnits="userSpaceOnUse" x1="1040" y1="1695.1182" x2="1040" y2="175.11813" gradientTransform="matrix(0.0124035,0,0,0.0124035,0,0)">
<stop offset="0" style="stop-color:rgb(74.117647%,74.117647%,74.117647%);stop-opacity:1;"/>
<stop offset="1" style="stop-color:rgb(87.843137%,87.843137%,87.843137%);stop-opacity:1;"/>
</linearGradient>
</defs>
<g id="surface1">
<path style=" stroke:none;fill-rule:nonzero;fill:url(#linear0);" d="M 3.84375 21.027344 L 20.09375 21.027344 L 20.09375 22.019531 L 3.84375 22.019531 Z M 3.84375 21.027344 "/>
<path style=" stroke:none;fill-rule:nonzero;fill:url(#radial0);" d="M 20.09375 21.027344 L 22.078125 21.027344 L 22.078125 20.03125 L 20.09375 20.03125 Z M 20.09375 21.027344 "/>
<path style=" stroke:none;fill-rule:nonzero;fill:url(#radial1);" d="M 3.84375 21.027344 L 1.859375 21.027344 L 1.859375 22.019531 L 3.84375 22.019531 Z M 3.84375 21.027344 "/>
<path style=" stroke:none;fill-rule:nonzero;fill:url(#radial2);" d="M 3.84375 21.027344 L 1.859375 21.027344 L 1.859375 20.03125 L 3.84375 20.03125 Z M 3.84375 21.027344 "/>
<path style=" stroke:none;fill-rule:nonzero;fill:url(#radial3);" d="M 20.09375 21.027344 L 22.078125 21.027344 L 22.078125 22.019531 L 20.09375 22.019531 Z M 20.09375 21.027344 "/>
<path style=" stroke:none;fill-rule:nonzero;fill:url(#linear1);" d="M 2.730469 2.171875 L 21.085938 2.171875 C 21.496094 2.171875 21.832031 2.503906 21.832031 2.917969 L 21.832031 20.28125 C 21.832031 20.691406 21.496094 21.027344 21.085938 21.027344 L 2.730469 21.027344 C 2.316406 21.027344 1.984375 20.691406 1.984375 20.28125 L 1.984375 2.917969 C 1.984375 2.503906 2.316406 2.171875 2.730469 2.171875 Z M 2.730469 2.171875 "/>
<path style=" stroke:none;fill-rule:nonzero;fill:rgb(100%,100%,100%);fill-opacity:0.392157;" d="M 2.730469 2.171875 C 2.316406 2.171875 1.984375 2.503906 1.984375 2.917969 L 1.984375 3.039062 C 1.984375 2.628906 2.316406 2.296875 2.730469 2.296875 L 21.085938 2.296875 C 21.5 2.296875 21.832031 2.628906 21.832031 3.039062 L 21.832031 2.917969 C 21.832031 2.503906 21.5 2.171875 21.085938 2.171875 Z M 2.730469 2.171875 "/>
<path style=" stroke:none;fill-rule:nonzero;fill:rgb(1.176471%,1.176471%,1.176471%);fill-opacity:0.235294;" d="M 2.730469 21.023438 C 2.316406 21.023438 1.984375 20.691406 1.984375 20.28125 L 1.984375 20.15625 C 1.984375 20.570312 2.316406 20.902344 2.730469 20.902344 L 21.085938 20.902344 C 21.5 20.902344 21.832031 20.570312 21.832031 20.15625 L 21.832031 20.28125 C 21.832031 20.691406 21.5 21.023438 21.085938 21.023438 Z M 2.730469 21.023438 "/>
<path style=" stroke:none;fill-rule:nonzero;fill:rgb(12.941176%,12.941176%,12.941176%);fill-opacity:1;" d="M 2.730469 2.101562 C 2.277344 2.101562 1.914062 2.464844 1.914062 2.917969 L 1.914062 20.28125 C 1.914062 20.730469 2.277344 21.097656 2.730469 21.097656 L 21.085938 21.097656 C 21.535156 21.097656 21.902344 20.730469 21.902344 20.28125 L 21.902344 2.917969 C 21.902344 2.464844 21.535156 2.101562 21.085938 2.101562 Z M 2.730469 2.242188 L 21.085938 2.242188 C 21.460938 2.242188 21.761719 2.542969 21.761719 2.917969 L 21.761719 20.28125 C 21.761719 20.65625 21.460938 20.957031 21.085938 20.957031 L 2.730469 20.957031 C 2.355469 20.957031 2.054688 20.65625 2.054688 20.28125 L 2.054688 2.917969 C 2.054688 2.542969 2.355469 2.242188 2.730469 2.242188 Z M 2.730469 2.242188 "/>
<path style=" stroke:none;fill-rule:nonzero;fill:url(#linear2);" d="M 3.96875 5.148438 C 3.695312 5.148438 3.472656 5.371094 3.472656 5.644531 L 3.472656 6.636719 C 3.472656 6.914062 3.695312 7.132812 3.96875 7.132812 C 10.566406 7.132812 15.875 12.445312 15.875 19.039062 C 15.875 19.316406 16.097656 19.535156 16.371094 19.535156 L 17.363281 19.535156 C 17.640625 19.535156 17.859375 19.316406 17.859375 19.039062 C 17.859375 11.34375 11.664062 5.148438 3.96875 5.148438 Z M 3.96875 9.117188 C 3.695312 9.117188 3.472656 9.339844 3.472656 9.613281 L 3.472656 10.605469 C 3.472656 10.882812 3.695312 11.101562 3.96875 11.101562 C 8.367188 11.101562 11.90625 14.644531 11.90625 19.039062 C 11.90625 19.316406 12.128906 19.535156 12.402344 19.535156 L 13.394531 19.535156 C 13.671875 19.535156 13.890625 19.316406 13.890625 19.039062 C 13.890625 13.542969 9.464844 9.117188 3.96875 9.117188 Z M 6.203125 14.078125 C 4.691406 14.078125 3.472656 15.296875 3.472656 16.808594 C 3.472656 18.320312 4.691406 19.535156 6.203125 19.535156 C 7.714844 19.535156 8.929688 18.320312 8.929688 16.808594 C 8.929688 15.296875 7.714844 14.078125 6.203125 14.078125 Z M 6.203125 14.078125 "/>
<path style=" stroke:none;fill-rule:nonzero;fill:rgb(100%,100%,100%);fill-opacity:1;" d="M 3.96875 5.148438 C 3.695312 5.148438 3.472656 5.371094 3.472656 5.644531 L 3.472656 6.015625 C 3.472656 5.742188 3.695312 5.519531 3.96875 5.519531 C 11.5625 5.519531 17.691406 11.550781 17.859375 19.101562 C 17.859375 19.082031 17.859375 19.0625 17.859375 19.039062 C 17.859375 11.34375 11.664062 5.148438 3.96875 5.148438 Z M 3.96875 9.117188 C 3.695312 9.117188 3.472656 9.339844 3.472656 9.613281 L 3.472656 9.984375 C 3.472656 9.710938 3.695312 9.488281 3.96875 9.488281 C 9.363281 9.488281 13.726562 13.753906 13.886719 19.109375 C 13.890625 19.085938 13.890625 19.0625 13.890625 19.039062 C 13.890625 13.542969 9.464844 9.117188 3.96875 9.117188 Z M 6.203125 14.078125 C 4.691406 14.078125 3.472656 15.296875 3.472656 16.808594 C 3.472656 16.871094 3.476562 16.933594 3.480469 16.996094 C 3.574219 15.570312 4.753906 14.453125 6.203125 14.453125 C 7.652344 14.453125 8.828125 15.570312 8.925781 16.996094 C 8.929688 16.933594 8.929688 16.871094 8.929688 16.808594 C 8.929688 15.296875 7.714844 14.078125 6.203125 14.078125 Z M 6.203125 14.078125 "/>
<path style=" stroke:none;fill-rule:nonzero;fill:rgb(0%,0%,0%);fill-opacity:0.235294;" d="M 3.472656 6.636719 L 3.472656 7.132812 C 3.472656 7.410156 3.695312 7.628906 3.96875 7.628906 C 10.566406 7.628906 15.875 12.941406 15.875 19.535156 C 15.875 19.8125 16.097656 20.03125 16.371094 20.03125 L 17.363281 20.03125 C 17.640625 20.03125 17.859375 19.8125 17.859375 19.535156 C 17.859375 19.398438 17.859375 19.257812 17.855469 19.121094 C 17.816406 19.355469 17.613281 19.535156 17.363281 19.535156 L 16.371094 19.535156 C 16.097656 19.535156 15.875 19.316406 15.875 19.039062 C 15.875 12.445312 10.566406 7.132812 3.96875 7.132812 C 3.695312 7.132812 3.472656 6.914062 3.472656 6.636719 Z M 3.472656 10.605469 L 3.472656 11.101562 C 3.472656 11.378906 3.695312 11.597656 3.96875 11.597656 C 8.367188 11.597656 11.90625 15.140625 11.90625 19.535156 C 11.90625 19.8125 12.128906 20.03125 12.402344 20.03125 L 13.394531 20.03125 C 13.671875 20.03125 13.890625 19.8125 13.890625 19.535156 C 13.890625 19.402344 13.890625 19.265625 13.882812 19.128906 C 13.839844 19.363281 13.640625 19.535156 13.394531 19.535156 L 12.402344 19.535156 C 12.128906 19.535156 11.90625 19.316406 11.90625 19.039062 C 11.90625 14.644531 8.367188 11.101562 3.96875 11.101562 C 3.695312 11.101562 3.472656 10.882812 3.472656 10.605469 Z M 3.484375 17.054688 C 3.476562 17.136719 3.472656 17.222656 3.472656 17.304688 C 3.472656 18.816406 4.691406 20.03125 6.203125 20.03125 C 7.714844 20.03125 8.929688 18.816406 8.929688 17.304688 C 8.929688 17.222656 8.925781 17.136719 8.917969 17.054688 C 8.792969 18.449219 7.628906 19.535156 6.203125 19.535156 C 4.773438 19.535156 3.609375 18.449219 3.484375 17.054688 Z M 3.484375 17.054688 "/>
<path style="fill:none;stroke-width:11.338583;stroke-linecap:round;stroke-linejoin:round;stroke:rgb(12.941176%,12.941176%,12.941176%);stroke-opacity:1;stroke-miterlimit:4;" d="M 319.969448 415.078477 C 297.924309 415.078477 279.973267 433.029519 279.973267 455.074659 L 279.973267 535.067021 C 279.973267 557.42709 297.924309 575.063202 319.969448 575.063202 C 851.887164 575.063202 1279.877794 1003.368763 1279.877794 1534.971547 C 1279.877794 1557.331617 1297.828836 1574.967728 1319.873975 1574.967728 L 1399.866337 1574.967728 C 1422.226407 1574.967728 1439.862518 1557.331617 1439.862518 1534.971547 C 1439.862518 914.558345 940.382651 415.078477 319.969448 415.078477 Z M 319.969448 735.047926 C 297.924309 735.047926 279.973267 752.998968 279.973267 775.044107 L 279.973267 855.036469 C 279.973267 877.396539 297.924309 895.03265 319.969448 895.03265 C 674.581258 895.03265 959.908345 1180.674668 959.908345 1534.971547 C 959.908345 1557.331617 977.859387 1574.967728 999.904526 1574.967728 L 1079.896889 1574.967728 C 1102.256958 1574.967728 1119.89307 1557.331617 1119.89307 1534.971547 C 1119.89307 1091.86425 763.076746 735.047926 319.969448 735.047926 Z M 500.109729 1135.009737 C 378.231602 1135.009737 279.973267 1233.268071 279.973267 1355.146198 C 279.973267 1477.024324 378.231602 1574.967728 500.109729 1574.967728 C 621.987855 1574.967728 719.931259 1477.024324 719.931259 1355.146198 C 719.931259 1233.268071 621.987855 1135.009737 500.109729 1135.009737 Z M 500.109729 1135.009737 " transform="matrix(0.0124035,0,0,0.0124035,0,0)"/>
</g>
</svg>
